X:793
T:Mingulay Boat Song, The
C:Joe Buchanan's Scottish Tome - Page 538.4
I:538 4
Z:Carl Allison
R:Slow Air
L:1/4
M:3/4
K:D
A,/>B,/| D D d/>A/ | F F A/>F/ | E E/>D/ ((3F/E/D/) | B, D A,/>B,/ | D D d/>A/ | F F A/>F/ | E/D/ B,/F/ F/>E/ D2 F/>E/ | 
D D {F}((3E/D/E/) | F A, A,/>B,/ | D D {F}((3E/D/E/) F E F/>E/ | D D {F}((3E/D/E/) F A, A,/>B,/ | D A,/>F/ E/>F/ | D3 :| 

